icon/ir/gps.svg

<svg stroke-width="1.5" viewBox="0 0 24 24" fill="none" xmlns="http://www.w3.org/2000/svg" height="1em" width="1em">
  <path d="M22 8.5H19.75C18.7835 8.5 18 9.2835 18 10.25V10.25C18 11.2165 18.7835 12 19.75 12H21.25C22.2165 12 23 12.7835 23 13.75V13.75C23 14.7165 22.2165 15.5 21.25 15.5H18" stroke="currentColor" stroke-linecap="round" stroke-linejoin="round"/>
  <path d="M10.5 15.5V12.7M10.5 12.7C10.9762 12.7 12.2143 12.7 13.3571 12.7C14.0714 12.7 15.5 12.7 15.5 10.6C15.5 8.5 14.0714 8.5 13.3571 8.5L10.5 8.5V12.7Z" stroke="currentColor" stroke-linecap="round" stroke-linejoin="round"/>
  <path d="M6.5 9.12734C5.93308 8.73191 5.24362 8.5 4.5 8.5C2.567 8.5 1 10.067 1 12C1 13.933 2.567 15.5 4.5 15.5C6.433 15.5 8 14 8 12H5" stroke="currentColor" stroke-linecap="round" stroke-linejoin="round"/>
</svg>

<svg width="24" height="24" stroke-width="1.5" fill="none" xmlns="http://www.w3.org/2000/svg"><path d="M22 8.5h-2.25A1.75 1.75 0 0 0 18 10.25v0c0 .966.784 1.75 1.75 1.75h1.5c.966 0 1.75.784 1.75 1.75v0a1.75 1.75 0 0 1-1.75 1.75H18M10.5 15.5v-2.8m0 0h2.857c.714 0 2.143 0 2.143-2.1s-1.429-2.1-2.143-2.1H10.5v4.2ZM6.5 9.127a3.5 3.5 0 1 0-2 6.373C6.433 15.5 8 14 8 12H5" stroke="currentColor" stroke-linecap="round" stroke-linejoin="round"/></svg>
